tipitek/img/icon-youtube.svg

<svg width="20" height="14" viewBox="0 0 20 14" fill="none" xmlns="http://www.w3.org/2000/svg">
<path d="M19.1984 2.60622C19.0897 2.21846 18.8779 1.8674 18.5856 1.59036C18.2851 1.3048 17.9168 1.10053 17.5154 0.996837C16.0132 0.60089 9.99479 0.60089 9.99479 0.60089C7.4858 0.572344 4.97741 0.697897 2.4838 0.97684C2.08241 1.0882 1.71476 1.29703 1.41355 1.58476C1.11759 1.86952 0.903217 2.22067 0.791232 2.60542C0.522222 4.05462 0.391519 5.5261 0.400884 7.00003C0.391286 8.47263 0.521668 9.94363 0.791232 11.3946C0.900817 11.7778 1.11439 12.1273 1.41115 12.4097C1.70791 12.6921 2.07746 12.896 2.4838 13.004C4.006 13.3992 9.99479 13.3992 9.99479 13.3992C12.507 13.4278 15.0186 13.3022 17.5154 13.0232C17.9168 12.9195 18.2851 12.7153 18.5856 12.4297C18.8778 12.1527 19.0893 11.8016 19.1976 11.4138C19.4736 9.96519 19.6078 8.4931 19.5983 7.01843C19.6191 5.53751 19.485 4.05848 19.1984 2.60542V2.60622ZM8.08145 9.73886V4.262L13.0888 7.00083L8.08145 9.73886Z" fill="black"/></svg>

<svg width="20" height="14" fill="none" xmlns="http://www.w3.org/2000/svg"><path d="M19.198 2.606a2.228 2.228 0 0 0-.612-1.016 2.44 2.44 0 0 0-1.07-.593C16.012.6 9.994.6 9.994.6a61.291 61.291 0 0 0-7.511.376c-.402.111-.77.32-1.07.608-.296.285-.51.636-.623 1.02C.522 4.055.391 5.526.401 7c-.01 1.473.12 2.944.39 4.395.11.383.323.732.62 1.015.297.282.666.486 1.073.594 1.522.395 7.51.395 7.51.395a61.425 61.425 0 0 0 7.521-.376c.402-.104.77-.308 1.07-.593.293-.277.504-.628.613-1.016.276-1.449.41-2.92.4-4.396.021-1.48-.113-2.96-.4-4.413v.001zM8.081 9.74V4.262l5.008 2.739L8.08 9.739z" fill="#000"/></svg>
